svgs/sharp-thin/clapperboard-play.svg

<svg xmlns="http://www.w3.org/2000/svg" viewBox="0 0 512 512"><!--! Font Awesome Pro 6.6.0 by @fontawesome - https://fontawesome.com License - https://fontawesome.com/license (Commercial License) Copyright 2024 Fonticons, Inc. --><path d="M496 176L16 176l0 288 480 0 0-288zm0-16l0-112-12.7 0-5.7 5.7L371.3 160 496 160zm-276.7 0l129.4 0 112-112L331.3 48l-5.7 5.7L219.3 160zm-22.6 0l112-112L179.3 48l-5.7 5.7L67.3 160l129.4 0zM16 48l0 112 28.7 0 112-112L16 48zM512 160l0 8 0 8 0 288 0 16-16 0L16 480 0 480l0-16L0 176l0-8 0-8L0 48 0 32l16 0 480 0 16 0 0 16 0 112zM204.2 225.2l144 88 11.2 6.8-11.2 6.8-144 88L192 422.3l0-14.3 0-176 0-14.3 12.2 7.4zM328.7 320L208 246.3l0 147.5L328.7 320z"/></svg>

<svg xmlns="http://www.w3.org/2000/svg" viewBox="0 0 512 512"><!--! Font Awesome Pro 6.5.2 by @fontawesome - https://fontawesome.com License - https://fontawesome.com/license (Commercial License) Copyright 2024 Fonticons, Inc. --><path d="M496 176H16V464H496V176zm0-16V48H483.3l-5.7 5.7L371.3 160H496zm-276.7 0H348.7l112-112H331.3l-5.7 5.7L219.3 160zm-22.6 0l112-112H179.3l-5.7 5.7L67.3 160H196.7zM16 48V160H44.7l112-112H16zM512 160v8 8V464v16H496 16 0V464 176v-8-8V48 32H16 496h16V48 160zM204.2 225.2l144 88 11.2 6.8-11.2 6.8-144 88L192 422.3V408 232 217.7l12.2 7.4zM328.7 320L208 246.3V393.7L328.7 320z"/></svg>
